!!!!SEGMENT: pl-wn--sd-xvi-o-235_bazylik-cyprian--kancjonal-zamoyskich-piesn-nowa-w-ktorej-jest-dziekowanie-panu-bogu-z-ochotnem-sercem-ciebie-wyslawiam.krn
!!!cenid: 15xx:793
!!!COM: Bazylik, Cyprian
!!!COM-rismID: pe40000234
!!!CDT: ~1535-~1600
!!!CNT: Polish
!!!GTL: Kancjonał Zamoyskich
!!!OTL: Pieśń nowa w której jest dziękowanie Panu Bogu/Z ochotnem sercem ciebie wysławiam
!!!PDT: 1558
!!!AGN:
!!!SMS-siglum: PL-Wn
!!!SMS-shelfmark: SD XVI.O.235
!!!SMS-shelfwork: G
!!!SMS-variant:
!!!SMS-altvar:
!!!NIFC-rismSourceID: 990004243
!!!NIFC-islandoraID:
!!!URL-pdf-islandora:
!!!URL-scan: https://polona.pl/item/piesn-nowa-w-ktorey-iest-dziekowanie-panu-bogu-wssechmogacemu-ze-malutkim-a-prostakom,MTE3MDM3NA/3 @EN{Scan on Polona} @PL{Skany w portalu Polona}
!!!AIN: 1 alto 1 bass 1 soprn 1 tenor
!!!ONB-nifc: UWAGA: proszę zapisywać tylko teksty występujące bezpośrednio pod nutami
!!!key: a:aeo
**kern	**text	**mod-text	**kern	**text	**mod-text	**kern	**text	**mod-text	**kern	**text	**mod-text
*part4	*part4	*part4	*part3	*part3	*part3	*part2	*part2	*part2	*part1	*part1	*part1
*staff4	*staff4	*staff4	*staff3	*staff3	*staff3	*staff2	*staff2	*staff2	*staff1	*staff1	*staff1
*ICvox	*	*	*ICvox	*	*	*ICvox	*	*	*ICvox	*	*
*Ibass	*	*	*Itenor	*	*	*Ialto	*	*	*Isoprn	*	*
*I"BAS.	*	*	*I"TENOR	*	*	*I"ALT.	*	*	*I"CANTVS.	*	*
*mI"Basso	*	*	*mI"Tenore	*	*	*mI"Alto	*	*	*mI"Soprano	*	*
*I'B	*	*	*I'T	*	*	*I'A	*	*	*I'S	*	*
*clefF4	*	*	*clefC4	*	*	*clefC3	*	*	*clefC1	*	*
*	*	*	*mclefGv2	*	*	*mclefG2	*	*	*mclefG2	*	*
*k[]	*	*	*k[]	*	*	*k[]	*	*	*k[]	*	*
*a:aeo	*	*	*a:aeo	*	*	*a:aeo	*	*	*a:aeo	*	*
*M2/1	*	*	*M2/1	*	*	*M2/1	*	*	*M2/1	*	*
*met(C|)	*	*	*met(C|)	*	*	*met(C|)	*	*	*met(C|)	*	*
*mmet(c|)	*	*	*mmet(c|)	*	*	*mmet(c|)	*	*	*mmet(c|)	*	*
=1-	=1-	=1-	=1-	=1-	=1-	=1-	=1-	=1-	=1-	=1-	=1-
1AA	Ʒ_o-	Z_o-	1A	Ʒ_o-	Z_o-	1c	Ʒ_o-	Z_o-	1e	Ʒ_o-	Z_o-
1.E	-cho-	-cho-	1.B	-cho-	-cho-	1.e	-cho-	-cho-	1.g	-cho-	-cho-
.	.	.	.	.	.	.	.	.	.	.	.
=2-	=2-	=2-	=2-	=2-	=2-	=2-	=2-	=2-	=2-	=2-	=2-
.	.	.	.	.	.	.	.	.	.	.	.
2C/	.	-tnym	2c\	.	-tnym	2e\	-tnem	-tnym	2g/	.	-tnym
1D	-tnem	ser-	1A	-tnem	ser-	1d	ſer-	ser-	1f	-tnem	ser-
=3-	=3-	=3-	=3-	=3-	=3-	=3-	=3-	=3-	=3-	=3-	=3-
2AA/	ſer-	-cem	2A/	ſer-	-cem	2c/	-cem	-cem	2e/	ſer-	-cem
2E\	-cem	Cie-	2G/	-cem	Cie-	2B/	.	Cie-	2e/	-cem	Cie-
2D/	ćie-	-bie	2A/	ćie-	-bie	2.d\	ćie-	-bie	2f/	ćie-	-bie
2G\	-bie	wy-	2B\	-bie	wy-	.	.	.	2g/	-bie	wy-
.	.	.	.	.	.	4e\	-bie	wy-	.	.	.
=4-	=4-	=4-	=4-	=4-	=4-	=4-	=4-	=4-	=4-	=4-	=4-
1F	wy-	-sła-	1c	wy-	-sła-	2.f\	wy-	-sła-	2.a\	wy-	-sła-
!	!	!	!	!	!	!LO:SIC:v:t=custos c	!	!	!	!	!
.	.	.	.	.	.	4e\	.	.	4g/	.	.
!LO:SIC:v:t=custos C	!	!	!	!	!	!LO:LB:g=original	!	!	!	!	!
2F\	-ſla-	-wiam	2A/	-ſla.-	-wiam	2c\	-ſla-	-wiam	2f/	-ſla-	.
!LO:LB:g=original	!	!	!	!	!	!	!	!	!	!	!
1C/	.	mój	2.c\	.	mój	4g\	.	mój	1e/	.	-wiam
.	.	.	.	.	.	4f\	.	.	.	.	.
=5-	=5-	=5-	=5-	=5-	=5-	=5-	=5-	=5-	=5-	=5-	=5-
.	.	.	.	.	.	2e\	.	Pa-	.	.	.
.	.	.	4B\	.	.	.	.	.	.	.	.
2D/	.	.	1A	.	Pa-	4d\	.	.	2f/	.	mój
.	.	.	.	.	.	4c\	.	.	.	.	.
1E	-wiam	Pa-	.	.	.	1B	-wiam	.	1g	-wiam	Pa-
!	!	!	!LO:SIC:s=2G#i	!	!	!	!	!	!	!	!
.	.	.	2G/	-[wiam]	.	.	.	.	.	.	.
=6-	=6-	=6-	=6-	=6-	=6-	=6-	=6-	=6-	=6-	=6-	=6-
!	!	!	!	!	!	!	!	!	!LO:SIC:v:t=custos a	!	!
2AA/	moy	-nie	2A/	moy	-nie	2c/	moy	-nie	2e/	moy	-nie
!	!	!	!LO:SIC:v:t=custos d	!	!	!	!	!	!LO:LB:g=original	!	!
2F\	pá-	żeś	2A/	Pá-	żeś	2c/	pá.-	żeś	2a\	pá-	żeś
!	!	!	!LO:LB:g=original	!	!	!	!	!	!	!	!
2D/	-nie/	Ty	1.d	-nie/	Ty	1.f	-[nie/]	Ty	1a	-nie/	Ty
1D\	Ʒes	o-	.	.	.	.	.	.	.	.	.
=7-	=7-	=7-	=7-	=7-	=7-	=7-	=7-	=7-	=7-	=7-	=7-
.	.	.	.	.	.	.	.	.	2b\	Ʒes	o-
1E	ty	-kiem	2c\	Ʒes	o-	1e	żes	o-	1g	ty	-kiem
.	.	.	2B\	ty	-kiem	.	.	.	.	.	.
2C/	o-	ła-	1c\	o-	ła-	2e\	ty	-kiem	2cc\	o-	ła-
=8-	=8-	=8-	=8-	=8-	=8-	=8-	=8-	=8-	=8-	=8-	=8-
1F	-kiem	-ska-	.	.	.	2c/	o-	ła-	1a	-kiem	-ska-
.	.	.	2A/	-kiem	-ska-	2d\	-kiem	-ska-	.	.	.
2E\	łá-	-wym	2B\	łá-	-wym	2.e\	łá-	-wym	2g/	łá-	-wym
1C/	-ſká-	ra-	1e\	-ſká-	ra-	.	.	.	2g/	-ská-	ra-
.	.	.	.	.	.	4f\	-ſká.-	ra-	.	.	.
=9-	=9-	=9-	=9-	=9-	=9-	=9-	=9-	=9-	=9-	=9-	=9-
!	!	!	!	!	!	!LO:SIC:v:t=custos e	!	!	!	!	!
.	.	.	.	.	.	1g	-[wym]	-czył	2cc\	-wym	-czył
!LO:SIC:v:t=custos A	!	!	!	!	!	!	!	!	!	!	!
2G\	-wym	-czył	2d\	-wym	-czył	.	.	.	2.b\	ra-	weź-
!LO:LB:g=original	!	!	!	!	!	!LO:LB:g=original	!	!	!	!	!
2A\	ra-	weź-	2c\	ra-	weź-	2e\	ra-	weź-	.	.	.
.	.	.	.	.	.	.	.	.	4a\	.	.
!	!	!	!	!	!	!	!	!	!LO:SIC:v:t=custos g 	!	!
2D/	-cʒył	-rzeć	2d\	-cʒył	-rzeć	2f\	-cʒył	-rzeć	1a\	-cʒył	-rzeć
=10-	=10-	=10-	=10-	=10-	=10-	=10-	=10-	=10-	=10-	=10-	=10-
1E	weyʒ-	na	1B	weyʒ-	na	1e	weyʒ-	na	.	.	.
!	!	!	!	!	!	!	!	!	!LO:LB:g=original	!	!
!	!	!	!	!	!	!	!	!	!LO:SIC:s=2g#i	!	!
.	.	.	.	.	.	.	.	.	2g/	weyʒ-	na
!	!	!	!LO:SIC:v:t=custos e	!	!	!	!	!	!	!	!
2AA/	-rʒeć	mię.	2A\	-rʒeć	mię.	2e\	-rʒeć	mię.	2a\	-rʒeć	mię.
!	!	!	!LO:LB:g=original	!	!	!	!	!	!	!	!
2A\	ná	Nie	2e\	ná	Nie	2c/	na	Nie	2cc\	ná	Nie
=11-	=11-	=11-	=11-	=11-	=11-	=11-	=11-	=11-	=11-	=11-	=11-
2A\	mie/	wzgar-	2c\	mie/	wzgar-	2f\	mie/	wzgar-	2a\	mie/	wzgar-
2G\	nie	-dzi-	2d\	nie	-dzi-	2g\	nie	-dzi-	2b\	nie	-dzi-
2E\	wʒgár-	-łeś	2e\	wʒgár-	-łeś	2g\	wʒgar.-	-łeś	2g/	wʒgár-	-łeś
1F\	-dʓi-	po-	1c\	-dʓi-	po-	2f\	-[dʒi-	po-	1a\	-dʓi-	po-
=12-	=12-	=12-	=12-	=12-	=12-	=12-	=12-	=12-	=12-	=12-	=12-
.	.	.	.	.	.	2f\	-łeś]	-ko-	.	.	.
2D/	-łes	-ko-	2d\	-łes	-ko-	2f\	po-	-rą	2f/	-łes	-ko-
2E\	po.-	-rą	2B\	[po-	-rą	2e\	-ko-	słu-	2g/	po-	-rą
2E\	-[ko-	słu-	2G/	-ko-	słu-	1c\	-rą	-że	2e/	-ko-	słu-
=13-	=13-	=13-	=13-	=13-	=13-	=13-	=13-	=13-	=13-	=13-	=13-
!LO:SIC:v:t=custos E	!	!	!	!	!	!	!	!	!	!	!
1F	-rą]	-że-	1A	-rą]	-że-	.	.	.	1a	-rą	-że-
.	.	.	.	.	.	2d\	.	.	.	.	.
!LO:LB:g=original	!	!	!	!	!	!	!	!	!LO:SIC:v:t=custos g	!	!
2E\	ſlu-	-bni-	2B\	ſlu-	-bni-	2e\	-ſlu-	-bni-	2g/	ſlu-	-bni-
!	!	!	!	!	!	!	!	!	!LO:LB:g=original	!	!
2C/	-że.-	-ce	2c\	-że-	-ce	2e\	-że-	-ce	1g\	-że-	-ce
=14-	=14-	=14-	=14-	=14-	=14-	=14-	=14-	=14-	=14-	=14-	=14-
!	!	!	!LO:SIC:v:t=custos G	!	!	!	!	!	!	!	!
1D	-[bni-	swo-	1A	-bni-	swo-	1d	-bni-	swo-	.	.	.
!	!	!	!	!	!	!	!	!	!LO:SIC:s=2f#i	!	!
.	.	.	.	.	.	.	.	.	2f/	-bni-	swo-
!	!	!	!LO:LB:g=original	!	!	!	!	!	!	!	!
1E	-ce]	-jej	1G	-ce	-jej	1B	-ce	-jej	1g	-ce	-jej
=15-	=15-	=15-	=15-	=15-	=15-	=15-	=15-	=15-	=15-	=15-	=15-
!	!	!	!	!	!	!LO:SIC:v:t=custos e	!	!	!	!	!
1C	ſwo-	któ-	1c	ſwo-	któ-	1g	ſwo-	któ-	1e	ſwo-	któ-
!	!	!	!	!	!	!LO:LB:g=original	!	!	!	!	!
2E\	-iey/	-ra	2B\	-iey/	-ra	2e\	-iey/	-ra	2g/	-iey/	-ra
2E\	Kto-	się	2B\	kto-	się	2e\	kto-	się	2g/	kto-	się
=16-	=16-	=16-	=16-	=16-	=16-	=16-	=16-	=16-	=16-	=16-	=16-
1F	-ra	wszy-	1A	-ra	wszy-	1c	-ra	wszy	1f	-ra	wszy-
2C/	ſie	-tka	2G/	ſie	-tka	2c/	ſie	-tka	2e/	ſie	-tka
2D/	wſſy-	da-	2F/	wſſy-	da-	2A/	wſſy-	da-	2d/	wſſy-	da-
=17-	=17-	=17-	=17-	=17-	=17-	=17-	=17-	=17-	=17-	=17-	=17-
1AA	-thka	-je	1E	-tká	-je	1c	-tká	-je	1e	-tká	-je
1AA	dá-	w_moc	1A	dá-	w_moc	1c	dá-	w_moc	1e	dá-	w_moc
=18-	=18-	=18-	=18-	=18-	=18-	=18-	=18-	=18-	=18-	=18-	=18-
!	!	!	!	!	!	!	!	!	!LO:SIC:v:t=custos g	!	!
2BB/	-ie	o-	1D	-ie	o-	2B/	-ie	o-	2d/	-ie	o-
!	!	!	!	!	!	!	!	!	!LO:LB:g=original	!	!
2GG/	.	.	.	.	.	2B/	w_moc	-pie-	2g/	w_moc	-pie-
2.C/	w_moc	-pie-	2.E/	w_moc	pie-	1c	o-	-ce	2e/	o-	-ce
.	.	.	.	.	.	.	.	.	2.g/	-pie-	Two-
!	!	!	!LO:SIC:v:t=custos G	!	!	!	!	!	!	!	!
4D/	o-	.	4F/	o-	.	.	.	.	.	.	.
=19-	=19-	=19-	=19-	=19-	=19-	=19-	=19-	=19-	=19-	=19-	=19-
!LO:SIC:v:t=custos AA	!	!	!LO:LB:g=original	!	!	!	!	!	!	!	!
2E\	-pie-	-ce	2G/	-pie-	.	2B/	-pie-	Two-	.	.	.
.	.	.	.	.	.	.	.	.	4f/	.	.
!LO:LB:g=original	!	!	!	!	!	!LO:SIC:v:t=custos B	!	!	!	!	!
1AA	-ce	Two-	2A\	-ce	-ce	1c	-ce	.	1e	-ce	.
.	.	.	1F	two-	Two-	.	.	.	.	.	.
!	!	!	!	!	!	!LO:LB:g=original	!	!	!	!	!
2BB/	two-	.	.	.	.	4B/	two-	.	2d/	two-	.
.	.	.	.	.	.	4A/	.	.	.	.	.
=20-	=20-	=20-	=20-	=20-	=20-	=20-	=20-	=20-	=20-	=20-	=20-
2.C/	-iey.	.	00E	-iey.	-jej.	1G	.	.	00e	-iey.	-jej.
4BB/	.	.	.	.	.	.	.	.	.	.	.
1AA	.	.	.	.	.	0A	.	.	.	.	.
=21-	=21-	=21-	=21-	=21-	=21-	=21-	=21-	=21-	=21-	=21-	=21-
0EEl	.	-jej.	.	.	.	.	.	.	.	.	.
!	!	!	!	!	!	!LO:MO:mod=!LO&colon;N&colon;vis=0	!	!	!	!	!
!	!	!	!	!	!	!LO:TX:t=P:problem:# above	!	!	!	!	!
.	.	.	.	.	.	1G#l	-iey.	-jej.	.	.	.
!	!	!	!	!	!	!LO:TX:b:t=C.S.:mod=	!	!	!	!	!
!LO:TX:t=A iij:b:B:mod=	!	!	!	!	!	!LO:TX:b:B:t=A ij:mod=	!	!	!	!	!
==	==	==	==	==	==	==	==	==	==	==	==
*-	*-	*-	*-	*-	*-	*-	*-	*-	*-	*-	*-
!!!system-decoration: [(*)]
!!LO:MO:ori
!!!RDF**kern: l = terminal long
!!LO:MO:mod
!! !!!RDF**kern: i = editorial accidental
!!LO:MO:end
!!!filter-modern: shed -e "s/TX(.*):t=P:/tx$1:t=P:/LG" | sic -sq | modori -m | autostem -r | tie -s | humtr -p | shed -e "s/-//B" | shed -e "s/^custos:/Xcustos:/I"
!!!ENC: Berenika Jozajtis
!!!END: 2022-04-20
!!!ENC: Krzysztof Stępień
!!!END: 2022-05-04
!!!ENC-modern: Andrzej Kubiczek
!!!END-modern: 2022-07-21
